!!!OTL: Nouo anno Domini
**kern
*staff1
=--
*clefC1
*k[]
*met(c)
*M4/4
1d
1c
=-
1.f
4e
4d
=-
1e
2d
1e
1d
2c
=-
0d
=-
1c
1f
=-
1e
1a
=-
1g
2a
1b
1a
2g
=-
0a
=-
!!linebreak:original
1b
1cc
=-
1a
1f
=-
2e
1f
1e
2d
0e
=-
1d
1f
1e
=-
2d
1e
1d
2c
0d
=-=
*-
!!title: @{OTL}, @{GTL}, ed. @{ENC}
!!!pag:
!!!GTL: Hymnbook C
!!!EFL: 
!!!YEM: Creative Commons CC/BY/NC/SA 4.0
!!!ENC: Marcin Konik
!!!END: 2015-0m-dd
!!!EED: Marcin Konik
!!!EEV: 
!!!ONB: Encoded in vim by Marcin Konik
!!!CharacterEncoding: utf-8
!!!RDF**kern: l=long note in original notation
!!!RDF**kern: i=editorial accidental
!!muse2ps: z14jc180F
!!!COM: Anonim
!!!CDT: [?]
!!!TXO: Polish
!!!ODT: 
!!!GTL: Hymnbook C
!!!ARL: Opactwo św. Wojciecha, Staniątki 
!!!voices:	1
